X:151
T:Kid on the Mountain, The  
B:CRE2.104 (MionnÃÂÃÂÃÂÃÂ¡n ar an Sliabh)
F:file ID: cre.2/151kid_m
L:1/8
M:9/8
R:slip jig
Q:160
K:Em
EEE FED GGG|EEE c2A BGE|EEE FED G2A|
"4"BAG FDF AFD|EEE FED GGG|EEE c2A BGE|
"7"EEE FED G2A|BAG FDF AFD||BGB AFA G2D|
"10"GBd g2e dBG|BGB AFA G2G|BAG FAG FED|
"13"BGB AFA G2D|GAB dge dcA|BGB AFA G2A|
"16"BAG FDF AFD||ggg eBe e2f|g2g efg afd|
"19"ggg eBe g2a|bag fdf afd|ggg eBe e2f|
"22"ggg efg afd|ggg eBe g2a|bag fag fed||
"25"eBB dBA G2A|BAB c2A BGE|DBB DAA G2A|
"28"BAG FDF AFD|eBe d2B G2A|BAB c2A BGE|
"31"DBB DAA GGA|BAG FDF AFD||

%%%

